public/img/field-16.svg

<svg width="86" height="75" viewBox="0 0 86 75" fill="none" xmlns="http://www.w3.org/2000/svg">
<path d="M86 66.1551L85.9645 66.125L86 66.0849L85.0984 65.3221L78.7921 59.5215C78.7921 59.5215 78.6807 59.6369 78.4983 59.8075L78.3311 59.9882C76.8926 61.3179 72.2832 65.1666 66.8735 65.2419C66.757 65.2419 66.6404 65.2419 66.5239 65.2419C63.6772 64.9358 60.9015 63.4204 58.0852 60.6154C53.4099 55.9388 48.2078 53.4148 42.6107 53.0786C42.4537 53.0786 42.2966 53.0786 42.1447 53.0786C41.3027 53.0046 40.4568 52.9828 39.612 53.0133C31.1834 53.3546 24.9227 58.9545 22.7953 61.1122C22.3394 61.5186 22.0658 61.8096 22.0051 61.8598L22.0355 61.8899C22.0262 61.9068 22.0142 61.9221 22 61.9351L22.9016 62.6878L29.2079 68.4934L29.5017 68.2024L29.6689 68.0217C31.1023 66.687 35.7168 62.8383 41.1266 62.7681C41.2431 62.7681 41.3545 62.7681 41.471 62.7681C44.3228 63.0741 47.0935 64.5895 49.9098 67.3945C54.5901 72.0511 59.782 74.5751 65.3792 74.9213C65.5311 74.9213 65.6882 74.9213 65.8452 74.9213C66.6872 74.9955 67.5331 75.0172 68.3778 74.9865C76.8065 74.6453 83.0672 69.0504 85.1946 66.8927C85.6353 66.4712 85.9139 66.1852 85.9696 66.125" fill="#EFC825"/>
<g clip-path="url(#clip0)">
<path d="M32.8769 32.7916L34.795 33.5236C34.905 33.5656 35.018 33.5855 35.1291 33.5855C35.5068 33.5855 35.8625 33.3557 36.0051 32.982C36.1898 32.4982 35.9473 31.9564 35.4636 31.7719L33.5455 31.0399C33.062 30.8554 32.52 31.0976 32.3354 31.5815C32.1506 32.0652 32.3931 32.607 32.8769 32.7916Z" fill="#5A2E91"/>
<path d="M60.5805 36.1036H60.0708C60.9648 35.5221 61.7379 34.8075 62.2149 33.933C62.7575 32.9382 62.8628 31.8582 62.5276 30.7232C62.2191 29.6781 61.6242 28.8777 60.758 28.3364C61.1786 27.2702 61.3991 26.1235 61.3991 24.9709C61.3991 19.9257 57.2946 15.8212 52.2495 15.8212C49.807 15.8212 47.4946 16.7904 45.7842 18.501L41.4529 12.2922C41.3011 12.0746 41.0642 11.9315 40.801 11.8985C40.5378 11.8654 40.2729 11.9452 40.0719 12.1186C38.8946 13.1336 37.9404 14.3685 37.2524 15.7416C36.2879 15.8355 35.3848 16.255 34.6764 16.6967C34.5156 15.1966 34.1336 13.0386 33.226 11.2931C32.987 10.8337 32.4212 10.6551 31.9616 10.8939C31.5022 11.1327 31.3235 11.6987 31.5624 12.1582C32.8781 14.6885 32.9177 18.481 32.918 18.5185C32.92 18.8971 33.1496 19.2375 33.5 19.381C33.615 19.4281 33.7356 19.451 33.8553 19.451C34.1 19.451 34.3404 19.3551 34.5199 19.1749C34.5315 19.1632 35.3848 18.3264 36.4331 17.876C36.3106 18.3187 36.2111 18.7694 36.1408 19.2275C35.794 21.484 36.114 23.7822 37.0428 25.8409L28.6304 29.6057C26.7185 26.2947 24.7348 24.7316 22.7285 24.9567C22.1608 25.0206 21.7052 25.1631 21.3377 25.3474C19.8275 22.9402 19.2377 21.0647 19.7582 20.2776C19.9537 19.982 20.5492 19.0822 22.3477 19.488C23.4147 19.7286 24.3194 20.2952 24.3266 20.2999C24.6459 20.5036 25.0563 20.4951 25.367 20.2786C25.6776 20.0621 25.8275 19.6799 25.7469 19.3099C25.6196 18.7262 25.4631 17.7215 25.4004 16.5861C25.4001 16.5594 25.3989 16.5326 25.3964 16.506C25.3029 14.6745 25.4587 12.5234 26.3759 11.2471C26.8545 10.5811 27.504 10.2114 28.3614 10.1167C28.6255 10.0876 28.8792 10.0882 29.1156 10.1187C29.6295 10.1857 30.099 9.82212 30.1651 9.30849C30.2313 8.79499 29.8685 8.32512 29.355 8.25899C28.9712 8.20949 28.5677 8.20749 28.1559 8.25299C26.7596 8.40699 25.6485 9.04624 24.8534 10.1527C24.0764 11.2339 23.6321 12.7351 23.5239 14.6254C22.0639 13.6834 20.3645 13.1766 18.5809 13.1766C13.5358 13.1766 9.43125 17.2811 9.43125 22.3262C9.43125 24.102 9.93975 25.8169 10.9009 27.2984C10.8384 27.8072 10.854 28.3264 10.919 28.8186C9.09475 28.2945 6.18538 27.7426 4.1195 28.7304C3.00963 29.2611 2.265 30.1464 1.90625 31.3616C1.29 33.4496 2.22012 35.002 3.5175 36.1034H3.41963C1.534 36.1036 0 37.6376 0 39.5231V39.7247C0 41.6102 1.534 43.1441 3.4195 43.1441H6.51988L14.0381 50.4715C13.4934 51.0461 13.1581 51.8214 13.1581 52.6737V52.7004C13.1581 54.427 14.5656 55.7796 16.3624 55.7796H47.6377C49.4345 55.7796 50.842 54.4271 50.842 52.7004V52.6737C50.842 51.8212 50.5068 51.0461 49.962 50.4715L57.4803 43.1441H60.5806C62.4661 43.1441 64.0001 41.6101 64.0001 39.7247V39.5231C64 37.6376 62.466 36.1036 60.5805 36.1036ZM60.5687 33.0352C59.9397 34.1886 58.1501 35.2689 55.6589 35.9991C55.5752 36.0236 55.4981 36.0596 55.4275 36.1036H37.9991C39.7995 33.4069 40.4019 30.1229 39.6694 26.9657C40.3321 26.3836 40.9451 26.1194 41.4956 26.1814C42.4161 26.285 42.6086 26.6484 42.672 26.7677C43.0681 27.5152 42.5252 29.0336 42.2011 29.6501C41.9741 30.0777 42.1099 30.6079 42.5146 30.8735C42.9194 31.1392 43.4598 31.053 43.7617 30.6747C45.2863 28.765 47.6475 26.478 49.3027 25.684C49.3731 25.6622 49.4416 25.6314 49.5071 25.5921C49.9795 25.3949 50.3844 25.3351 50.6809 25.463C51.145 25.6632 51.7551 26.0884 51.6953 27.464C51.6543 28.404 51.3106 29.2599 51.308 29.2664C51.1637 29.6165 51.2444 30.019 51.5122 30.2866C51.7803 30.5544 52.1829 30.6345 52.5327 30.4899C53.7936 29.969 57.5041 28.8269 59.5054 29.7837C60.1241 30.0796 60.5244 30.5606 60.7291 31.2542C60.9209 31.9032 60.8684 32.4857 60.5687 33.0352ZM31.8539 35.4315L31.0152 33.5576C30.8037 33.0851 30.2493 32.8734 29.7766 33.0849C29.304 33.2964 29.0924 33.8509 29.3039 34.3235L30.1005 36.1036H27.1474L27.4911 35.2027C27.6758 34.719 27.4332 34.1771 26.9495 33.9926C26.4659 33.808 25.9239 34.0504 25.7394 34.5341L25.1404 36.1035H20.7785C20.7636 36.0831 20.3925 35.6326 20.2354 35.4169L37.8711 27.5241C38.4936 30.4509 37.7414 33.5837 35.8073 35.912C35.7575 35.9719 35.7176 36.0364 35.6851 36.1035H31.8888C31.9581 35.8904 31.9526 35.6522 31.8539 35.4315ZM49.0365 23.1627C49.6849 22.0094 50.904 21.2826 52.2495 21.2826C54.2831 21.2826 55.9376 22.9371 55.9376 24.9707C55.9376 26.0901 55.4376 27.1362 54.5659 27.8409C54.5309 27.8692 54.4993 27.9001 54.4694 27.9322C54.1286 28.0114 53.8076 28.0961 53.5149 28.1802C53.7312 26.5387 53.4071 24.5966 51.4235 23.7411C50.8195 23.4807 50.1421 23.4539 49.3848 23.662L49.0365 23.1627ZM52.2495 17.6961C56.2607 17.6961 59.5241 20.9595 59.5241 24.9707C59.5241 25.9129 59.3473 26.819 59.0028 27.6749C58.4136 27.5634 57.7951 27.5307 57.178 27.5519C57.5896 26.7666 57.8125 25.8854 57.8125 24.9707C57.8125 21.9032 55.3169 19.4076 52.2494 19.4076C50.5191 19.4076 48.9259 20.2034 47.8875 21.516L46.8774 20.068C48.2563 18.5576 50.1954 17.6961 52.2495 17.6961ZM40.5416 14.2631L47.6544 24.4586C46.9562 24.8921 46.204 25.4765 45.3935 26.2145C45.1365 26.4484 44.8878 26.6852 44.6505 26.9187C44.6026 26.5662 44.5026 26.2192 44.3314 25.8947C44.0037 25.2735 43.2821 24.4956 41.7054 24.3181C40.7441 24.2101 39.7806 24.5177 38.8298 25.2334C37.9911 23.4621 37.6932 21.4691 37.9939 19.5122C38.2975 17.536 39.191 15.7062 40.5416 14.2631ZM20.0049 26.7422C19.8929 27.0051 19.821 27.2792 19.7833 27.5574C19.546 27.3237 19.2973 27.087 19.0403 26.853C17.7445 25.6731 16.5972 24.8851 15.5833 24.4812C15.5736 24.4657 15.5647 24.4499 15.5541 24.4347C15.1214 23.8149 14.8926 23.0857 14.8926 22.3264C14.8926 20.2927 16.5471 18.6382 18.5807 18.6382C18.6126 18.6382 18.6441 18.6409 18.6759 18.6417C18.5055 18.8181 18.344 19.0169 18.1943 19.2434C17.1506 20.8214 17.7436 23.2756 20.0049 26.7422ZM11.3061 22.3264C11.3061 18.3151 14.5695 15.0517 18.5807 15.0517C20.4474 15.0517 22.1992 15.747 23.5514 17.0156C23.5744 17.3305 23.6024 17.63 23.6334 17.9047C22.9304 17.6615 22.148 17.4986 21.3745 17.5159C20.5278 17.0231 19.5686 16.7632 18.5806 16.7632C15.5131 16.7632 13.0175 19.2589 13.0175 22.3264C13.0175 22.9934 13.1355 23.6447 13.3625 24.2576C13.2425 24.2902 13.1248 24.3302 13.0101 24.3797C12.544 24.5807 12.1705 24.8424 11.8731 25.1454C11.5005 24.2595 11.3061 23.3047 11.3061 22.3264ZM7.05725 36.0344C4.35462 34.905 3.2265 33.5115 3.70438 31.8927C3.90887 31.1997 4.30862 30.719 4.92637 30.4231C6.91988 29.4679 10.6374 30.6085 11.9008 31.1284C12.25 31.2725 12.6511 31.192 12.9191 30.9256C13.1871 30.6592 13.2685 30.257 13.1263 29.9069C13.1229 29.8984 12.7791 29.0425 12.7382 28.1025C12.6784 26.7269 13.2884 26.3017 13.7526 26.1015C15.0898 25.525 18.6299 28.758 20.6719 31.3134C20.9736 31.6909 21.5125 31.7764 21.9169 31.512C22.3214 31.2475 22.4581 30.7181 22.2332 30.2904C21.9082 29.6722 21.3654 28.1539 21.7615 27.4064C21.8247 27.287 22.0174 26.9236 22.9379 26.82C24.065 26.6922 25.4918 27.9792 26.9085 30.3762L18.4702 34.1527C18.228 34.2611 18.0431 34.4671 17.9614 34.7195C17.8796 34.9719 17.9086 35.2471 18.0411 35.477C18.1641 35.6904 18.2966 35.8984 18.433 36.1037H7.1895C7.14775 36.0777 7.10413 36.0539 7.05725 36.0344ZM48.9669 52.7004C48.9669 53.491 48.2981 53.9046 47.6376 53.9046H16.3622C15.7016 53.9046 15.033 53.491 15.033 52.7004V52.6737C15.033 51.9409 15.6294 51.3445 16.3622 51.3445H47.6376C48.3705 51.3445 48.9669 51.9409 48.9669 52.6737V52.7004ZM62.125 39.7247C62.125 40.5764 61.4321 41.2691 60.5805 41.2691H17.935C17.4172 41.2691 16.9975 41.6889 16.9975 42.2066C16.9975 42.7244 17.4172 43.1441 17.935 43.1441H54.7938L48.3035 49.4695H47.6376H16.3622H15.6964L9.20625 43.1441H14.185C14.7028 43.1441 15.1225 42.7244 15.1225 42.2066C15.1225 41.6889 14.7028 41.2691 14.185 41.2691H3.4195C2.56788 41.2691 1.875 40.5762 1.875 39.7247V39.5231C1.875 38.6715 2.56788 37.9786 3.4195 37.9786H60.5805C61.4321 37.9786 62.125 38.6715 62.125 39.5231V39.7247Z" fill="#5A2E91"/>
<path d="M41.0189 22.6534C41.0314 22.6534 41.0438 22.6531 41.0563 22.6526L42.8205 22.5834C43.3379 22.5631 43.7409 22.1272 43.7205 21.6099C43.7003 21.0925 43.2636 20.6915 42.747 20.7099L40.9828 20.7791C40.4654 20.7994 40.0624 21.2352 40.0828 21.7526C40.1025 22.2575 40.5181 22.6534 41.0189 22.6534Z" fill="#5A2E91"/>
</g>
<defs>
<clipPath id="clip0">
<rect width="64" height="64" fill="white"/>
</clipPath>
</defs>
</svg>

<svg width="86" height="75" fill="none" xmlns="http://www.w3.org/2000/svg"><path d="M86 66.155l-.035-.03.035-.04-.902-.763-6.306-5.8s-.111.115-.294.285l-.167.181c-1.438 1.33-6.048 5.179-11.457 5.254h-.35c-2.847-.306-5.623-1.822-8.439-4.627-4.675-4.676-9.877-7.2-15.474-7.536h-.466a20.487 20.487 0 00-2.533-.066c-8.429.342-14.69 5.942-16.817 8.1-.456.406-.73.697-.79.747l.03.03a.177.177 0 01-.035.045l.902.753 6.306 5.805.294-.29.167-.181c1.433-1.335 6.048-5.184 11.458-5.254h.344c2.852.306 5.623 1.822 8.439 4.626 4.68 4.657 9.872 7.181 15.47 7.527h.465c.842.075 1.688.096 2.533.066 8.428-.342 14.69-5.937 16.817-8.094.44-.422.719-.708.775-.768" fill="#EFC825"/><g clip-path="url(#clip0)" fill="#5A2E91"><path d="M32.877 32.792l1.918.732a.935.935 0 001.21-.542.937.937 0 00-.541-1.21l-1.919-.732a.937.937 0 00-.668 1.752z"/><path d="M60.58 36.104h-.51c.895-.582 1.668-1.297 2.145-2.171.542-.995.648-2.075.313-3.21-.309-1.045-.904-1.845-1.77-2.387a9.193 9.193 0 00.641-3.365c0-5.045-4.104-9.15-9.15-9.15-2.442 0-4.754.97-6.465 2.68l-4.331-6.209a.937.937 0 00-1.381-.173 11.705 11.705 0 00-2.82 3.623c-.964.093-1.867.513-2.576.955-.16-1.5-.542-3.658-1.45-5.404a.938.938 0 00-1.664.865c1.316 2.53 1.356 6.323 1.356 6.36a.937.937 0 001.602.657c.011-.012.865-.849 1.913-1.299a11.748 11.748 0 00.61 7.965l-8.413 3.765c-1.912-3.311-3.895-4.874-5.901-4.65a4.095 4.095 0 00-1.391.391c-1.51-2.407-2.1-4.282-1.58-5.07.196-.295.791-1.195 2.59-.789a7.166 7.166 0 011.979.812.938.938 0 001.42-.99 18.414 18.414 0 01-.35-2.804c-.094-1.832.062-3.983.979-5.259.479-.666 1.128-1.036 1.985-1.13a3.12 3.12 0 01.755.002.937.937 0 10.239-1.86 5.054 5.054 0 00-1.2-.006c-1.395.154-2.507.793-3.302 1.9-.777 1.08-1.22 2.582-1.33 4.472a9.075 9.075 0 00-4.942-1.448c-5.045 0-9.15 4.104-9.15 9.15 0 1.775.509 3.49 1.47 4.971a6.057 6.057 0 00.018 1.52c-1.824-.524-4.734-1.075-6.8-.088-1.11.531-1.854 1.416-2.213 2.632-.616 2.088.314 3.64 1.612 4.741H3.42A3.424 3.424 0 000 39.523v.202a3.423 3.423 0 003.42 3.42h3.1l7.518 7.326a3.192 3.192 0 00-.88 2.203v.026c0 1.727 1.408 3.08 3.204 3.08h31.276c1.797 0 3.204-1.353 3.204-3.08v-.026c0-.853-.335-1.628-.88-2.203l7.518-7.327h3.1a3.423 3.423 0 003.42-3.42v-.2a3.424 3.424 0 00-3.42-3.42zm-.011-3.069c-.63 1.154-2.419 2.234-4.91 2.964a.932.932 0 00-.231.105H37.999a11.656 11.656 0 001.67-9.138c.663-.582 1.276-.847 1.827-.785.92.104 1.113.467 1.176.587.396.747-.147 2.266-.47 2.882a.938.938 0 001.56 1.025c1.524-1.91 3.886-4.197 5.54-4.991a.935.935 0 00.205-.092c.473-.197.877-.257 1.174-.129.464.2 1.074.625 1.014 2.001a6.125 6.125 0 01-.387 1.802.937.937 0 001.225 1.224c1.26-.521 4.971-1.663 6.972-.706.62.296 1.02.777 1.224 1.47.192.65.14 1.232-.16 1.781zm-28.715 2.397l-.839-1.874a.937.937 0 00-1.711.766l.797 1.78h-2.954l.344-.901a.937.937 0 10-1.752-.669l-.599 1.57h-4.36c-.015-.02-.387-.471-.544-.687l17.636-7.893a9.965 9.965 0 01-2.064 8.388.935.935 0 00-.122.191H31.89a.933.933 0 00-.035-.672zm17.182-12.27a3.68 3.68 0 013.213-1.88 3.692 3.692 0 013.689 3.689c0 1.12-.5 2.165-1.372 2.87a.94.94 0 00-.097.091c-.34.08-.661.164-.954.248.216-1.641-.108-3.583-2.092-4.439-.604-.26-1.28-.287-2.038-.079l-.349-.5zm3.213-5.466a7.283 7.283 0 017.275 7.275c0 .942-.177 1.848-.521 2.704a8.329 8.329 0 00-1.825-.123 5.55 5.55 0 00.635-2.581 5.57 5.57 0 00-5.564-5.563 5.55 5.55 0 00-4.361 2.108l-1.01-1.448a7.258 7.258 0 015.371-2.372zm-11.707-3.433l7.112 10.196c-.698.433-1.45 1.018-2.26 1.756-.258.233-.506.47-.743.704a3.066 3.066 0 00-.32-1.024c-.327-.622-1.049-1.4-2.626-1.577-.96-.108-1.924.2-2.875.915a9.87 9.87 0 011.712-10.97zm-20.537 12.48a3.156 3.156 0 00-.222.814 26.2 26.2 0 00-.743-.704c-1.296-1.18-2.443-1.968-3.457-2.372-.01-.015-.018-.031-.029-.046a3.665 3.665 0 01-.661-2.109 3.692 3.692 0 013.688-3.688c.032 0 .063.003.095.004-.17.176-.332.375-.482.601-1.043 1.578-.45 4.033 1.81 7.5zm-8.699-4.417c0-4.01 3.264-7.274 7.275-7.274a7.21 7.21 0 014.97 1.964c.023.315.051.614.082.889-.703-.244-1.485-.406-2.258-.39a5.54 5.54 0 00-2.794-.752 5.57 5.57 0 00-5.218 7.495c-.12.032-.238.072-.353.122-.466.2-.84.462-1.137.765a7.258 7.258 0 01-.567-2.819zM7.057 36.034c-2.702-1.129-3.83-2.523-3.353-4.141.205-.693.605-1.174 1.222-1.47 1.994-.955 5.711.186 6.975.705a.937.937 0 001.225-1.221c-.003-.009-.347-.864-.388-1.805-.06-1.375.55-1.8 1.015-2 1.337-.577 4.877 2.656 6.919 5.211a.937.937 0 001.561-1.023c-.325-.618-.868-2.136-.471-2.884.063-.119.255-.482 1.176-.586 1.127-.128 2.554 1.16 3.97 3.556l-8.438 3.777a.937.937 0 00-.429 1.324c.123.213.256.421.392.627H7.189a.915.915 0 00-.132-.07zM48.967 52.7c0 .791-.669 1.205-1.33 1.205H16.363c-.66 0-1.329-.414-1.329-1.205v-.026c0-.733.596-1.33 1.33-1.33h31.275c.733 0 1.329.597 1.329 1.33v.026zm13.158-12.975c0 .851-.693 1.544-1.544 1.544H17.934a.938.938 0 000 1.875h36.859l-6.49 6.325H15.696l-6.49-6.325h4.979a.937.937 0 100-1.875H3.42a1.546 1.546 0 01-1.545-1.544v-.202c0-.852.693-1.544 1.545-1.544h57.16c.852 0 1.545.693 1.545 1.544v.202z"/><path d="M41.019 22.653h.037l1.765-.07a.937.937 0 10-.074-1.873l-1.764.07a.937.937 0 00.036 1.873z"/></g><defs><clipPath id="clip0"><path fill="#fff" d="M0 0h64v64H0z"/></clipPath></defs></svg>
